X:150 
T:O'Connell's Reel 
T:John P. Blessing's Favorite
S:McDermott MS
F:file ID: cre.4/150o_conn
B:CRE4.174 (Ril Ui Chonaill)
Q:180
L:1/8
M:4/4
R:reel % A-B-A
K:D
dB|AFDF E2DF|AFAB e2dB|AGFD EFDF|AFAB dedB|
AFDF E2DF|AFAB e2dB|AGFD EFDF|AFAB d2 ||
Bc|d2fd edBd|AFAB e2dB|d2fd edBd|AFAB d2dA|
d2fd edBd|AFAB e2dB|defg abag|fedc dedB ||

%%%

